PortableApps/LibreOfficePortable/App/libreoffice/help/media/icon-themes/cmd/sc_sharedocument.svg

<svg viewBox="0 0 16 16" xmlns="http://www.w3.org/2000/svg"><path d="m3 1v14h10v-11.2949219l-2.695312-2.7050781z" fill="#fff"/><path d="m3 0c-.554 0-1 .446-1 1v14c0 .554.446 1 1 1h2 1.0292969 2.9433593 2.0273438 2c.554 0 1-.446 1-1v-.800781-.199219-2-7.5-.8632812l-3.636719-3.6367188h-.863281zm0 1h6v3.5c0 .277.223.5.5.5h3.5v7 2 .091797.908203h-2-.740234-4.0585941-1.2011719-2zm7 0 3 3h-3z" fill="#808080"/><path d="m10 6a1 1 0 0 0 -1 1 1 1 0 0 0 1 1 1 1 0 0 0 1-1 1 1 0 0 0 -1-1zm-2.5 2a.5.5 0 0 0 -.5.5.5.5 0 0 0 .5.5.5.5 0 0 0 .5-.5.5.5 0 0 0 -.5-.5zm-2.5 1a1 1 0 0 0 -1 1 1 1 0 0 0 1 1 1 1 0 0 0 1-1 1 1 0 0 0 -1-1zm2.5 2a.5.5 0 0 0 -.5.5.5.5 0 0 0 .5.5.5.5 0 0 0 .5-.5.5.5 0 0 0 -.5-.5zm2.5 1a1 1 0 0 0 -1 1 1 1 0 0 0 1 1 1 1 0 0 0 1-1 1 1 0 0 0 -1-1z" fill="#4d82b8"/></svg>

<svg viewBox="0 0 16 16" xmlns="http://www.w3.org/2000/svg">
 <path
   d="m3 1v14h10v-11.2949219l-2.695312-2.7050781z"
   fill="#fff"
   />
<path
   d="m3 0c-.554 0-1 .446-1 1v14c0 .554.446 1 1 1h2 1.0292969 2.9433593 2.0273438 2c.554 0 1-.446 1-1v-.800781-.199219-2-7.5-.8632812l-3.636719-3.6367188h-.863281zm0 1h6v3.5c0 .277.223.5.5.5h3.5v7 2 .091797.908203h-2-.740234-4.0585941-1.2011719-2zm7 0 3 3h-3z"
   fill="#808080"
   />
<path
   style="fill:#4d82b8"
   d="M 10 6 A 1 1 0 0 0 9 7 A 1 1 0 0 0 10 8 A 1 1 0 0 0 11 7 A 1 1 0 0 0 10 6 z M 7.5 8 A 0.5 0.5 0 0 0 7 8.5 A 0.5 0.5 0 0 0 7.5 9 A 0.5 0.5 0 0 0 8 8.5 A 0.5 0.5 0 0 0 7.5 8 z M 5 9 A 1 1 0 0 0 4 10 A 1 1 0 0 0 5 11 A 1 1 0 0 0 6 10 A 1 1 0 0 0 5 9 z M 7.5 11 A 0.5 0.5 0 0 0 7 11.5 A 0.5 0.5 0 0 0 7.5 12 A 0.5 0.5 0 0 0 8 11.5 A 0.5 0.5 0 0 0 7.5 11 z M 10 12 A 1 1 0 0 0 9 13 A 1 1 0 0 0 10 14 A 1 1 0 0 0 11 13 A 1 1 0 0 0 10 12 z "
   />
</svg>
